addons/fusion_settings/icons/FusionListSetting.svg

<?xml version="1.0" encoding="UTF-8" standalone="no"?>
<!-- Created with Inkscape (http://www.inkscape.org/) -->

<svg
   id="svg2995"
   sodipodi:docname="FusionListSetting.svg"
   inkscape:export-filename="/home/aztlek/Documentos/IDU/TOGAF IDU/TOGAF IDU V2.0/aplicacionEnDesuso-16x16.png"
   viewBox="0 0 16 16"
   inkscape:export-xdpi="30.18"
   version="1.1"
   inkscape:export-ydpi="30.18"
   inkscape:version="1.4 (86a8ad7, 2024-10-11)"
   width="16"
   height="16"
   xmlns:inkscape="http://www.inkscape.org/namespaces/inkscape"
   xmlns:sodipodi="http://sodipodi.sourceforge.net/DTD/sodipodi-0.dtd"
   xmlns="http://www.w3.org/2000/svg"
   xmlns:svg="http://www.w3.org/2000/svg"
   xmlns:rdf="http://www.w3.org/1999/02/22-rdf-syntax-ns#"
   xmlns:cc="http://creativecommons.org/ns#"
   xmlns:dc="http://purl.org/dc/elements/1.1/">
  <defs
     id="defs1">
    <clipPath
       clipPathUnits="userSpaceOnUse"
       id="clipPath2">
      <rect
         style="fill:#ffffff;fill-opacity:1;stroke:none;stroke-width:0.408253;stroke-linejoin:round;stroke-miterlimit:5.5;stroke-dasharray:none;stroke-opacity:1"
         id="rect2"
         width="16"
         height="8.0016031"
         x="1.2212453e-15"
         y="0"
         ry="0.48827267" />
    </clipPath>
  </defs>
  <sodipodi:namedview
     id="base"
     bordercolor="#666666"
     inkscape:pageshadow="2"
     inkscape:window-y="-8"
     pagecolor="#ffffff"
     inkscape:window-height="1417"
     inkscape:grid-bbox="true"
     inkscape:window-maximized="1"
     inkscape:zoom="32"
     inkscape:window-x="1072"
     showgrid="true"
     borderopacity="1.0"
     inkscape:current-layer="layer1"
     inkscape:cx="3.96875"
     inkscape:cy="9.953125"
     inkscape:window-width="2560"
     inkscape:pageopacity="0.0"
     inkscape:document-units="px"
     inkscape:showpageshadow="2"
     inkscape:pagecheckerboard="0"
     inkscape:deskcolor="#d1d1d1" />
  <g
     id="layer1"
     inkscape:label="Layer 1"
     inkscape:groupmode="layer">
    <path
       id="path2989"
       style="fill:#5a5a5a;fill-opacity:1;stroke-width:0.308;stroke-dasharray:none"
       inkscape:connector-curvature="0"
       d="m 7.9982967,15.359589 c 0.4244808,0 0.8410318,-0.03817 1.2458609,-0.107172 L 9.4415905,13.159231 C 9.86027,13.04253 10.256524,12.879345 10.627172,12.670277 l 1.617712,1.336277 c 0.683364,-0.483679 1.281492,-1.078321 1.765078,-1.761496 l -1.339641,-1.617621 c 0.208831,-0.370218 0.375646,-0.7674579 0.492317,-1.1855833 l 2.089853,-0.1975956 c 0.06904,-0.4049519 0.107173,-0.8212572 0.107173,-1.2458609 0,-0.4253433 -0.0379,-0.8402596 -0.107173,-1.2458596 L 13.162638,6.5549312 C 13.045949,6.136807 12.879149,5.7395668 12.670321,5.3693494 L 14.006599,3.7517303 C 13.523877,3.0703096 12.929728,2.4728298 12.248309,1.9901081 L 10.627358,3.329749 C 10.256462,3.1204858 9.8607639,2.9541952 9.4417748,2.8374327 L 9.2441793,0.74424723 c -0.4048291,-0.0689991 -0.8213813,-0.103836 -1.2458609,-0.103836 -0.4244796,0 -0.8376999,0.0348248 -1.242529,0.103836 L 6.5581939,2.8374327 C 6.1392048,2.954182 5.7435077,3.1204858 5.3726121,3.329749 L 3.7516599,1.9901081 C 3.0702717,2.4728612 2.4761226,3.0703409 1.9933696,3.7517303 L 3.3296485,5.3693494 C 3.1208165,5.7395668 2.9540019,6.136807 2.8373322,6.5549312 L 0.74750872,6.7525376 C 0.67823252,7.1581376 0.640336,7.5730539 0.640336,7.9983972 c 0,0.424635 0.0381374,0.8409391 0.10717272,1.2458609 L 2.8373322,9.4418537 c 0.116689,0.4181254 0.2834879,0.8153653 0.4923163,1.1855833 l -1.3396409,1.617621 c 0.4837095,0.683177 1.0818674,1.277817 1.7651697,1.761496 l 1.6176191,-1.336277 c 0.3706487,0.209081 0.7669023,0.372253 1.185583,0.488954 l 0.1977401,2.093186 c 0.404829,0.069 0.8180493,0.107172 1.2425289,0.107172 z m 0,-4.558222 c -1.5479321,0 -2.7998388,-1.2552702 -2.7998388,-2.8032022 0,-1.5479321 1.2519067,-2.8032021 2.7998388,-2.8032021 1.5479321,0 2.8032023,1.25527 2.8032023,2.8032021 0,1.547932 -1.2552702,2.8032022 -2.8032023,2.8032022 z"
       clip-path="url(#clipPath2)" />
    <rect
       style="fill:#ffffff;fill-opacity:0;stroke:#5a5a5a;stroke-width:1.52938;stroke-linejoin:miter;stroke-miterlimit:5.5;stroke-dasharray:none;stroke-opacity:1"
       id="rect3"
       width="13.08278"
       height="4.5861745"
       x="1.5121962"
       y="10.008726"
       ry="0" />
  </g>
  <metadata
     id="metadata1">
    <rdf:RDF>
      <cc:Work>
        <dc:format>image/svg+xml</dc:format>
        <dc:type
           rdf:resource="http://purl.org/dc/dcmitype/StillImage" />
        <cc:license
           rdf:resource="http://creativecommons.org/publicdomain/zero/1.0/" />
        <dc:publisher>
          <cc:Agent
             rdf:about="http://openclipart.org/">
            <dc:title>Openclipart</dc:title>
          </cc:Agent>
        </dc:publisher>
      </cc:Work>
      <cc:License
         rdf:about="http://creativecommons.org/publicdomain/zero/1.0/">
        <cc:permits
           rdf:resource="http://creativecommons.org/ns#Reproduction" />
        <cc:permits
           rdf:resource="http://creativecommons.org/ns#Distribution" />
        <cc:permits
           rdf:resource="http://creativecommons.org/ns#DerivativeWorks" />
      </cc:License>
    </rdf:RDF>
  </metadata>
</svg>

<svg xmlns="http://www.w3.org/2000/svg" width="16" height="16" viewBox="0 0 16 16"><defs><clipPath id="a" clipPathUnits="userSpaceOnUse"><rect width="16" height="8.002" ry=".488" style="fill:#fff;fill-opacity:1;stroke:none;stroke-width:.408253;stroke-linejoin:round;stroke-miterlimit:5.5;stroke-dasharray:none;stroke-opacity:1"/></clipPath></defs><path d="M7.998 15.36c.425 0 .841-.039 1.246-.108l.198-2.093q.628-.175 1.185-.489l1.618 1.337a7.4 7.4 0 0 0 1.765-1.762l-1.34-1.618q.316-.556.493-1.185l2.09-.198q.105-.608.107-1.246-.002-.637-.108-1.245l-2.09-.198a5.3 5.3 0 0 0-.492-1.186l1.337-1.617a7.4 7.4 0 0 0-1.759-1.762l-1.62 1.34a5.3 5.3 0 0 0-1.186-.493L9.244.744A7.4 7.4 0 0 0 7.998.64q-.635 0-1.242.104l-.198 2.093a5.3 5.3 0 0 0-1.185.493L3.752 1.99a7.4 7.4 0 0 0-1.759 1.762L3.33 5.369c-.21.37-.376.768-.493 1.186l-2.09.198Q.643 7.36.64 7.998q.002.638.108 1.246l2.09.198c.116.418.283.815.492 1.185l-1.34 1.618a7.4 7.4 0 0 0 1.765 1.762l1.618-1.337q.556.315 1.185.49l.198 2.092q.606.107 1.243.108zm0-4.559a2.8 2.8 0 0 1-2.8-2.803 2.8 2.8 0 1 1 5.603 0 2.804 2.804 0 0 1-2.803 2.803" clip-path="url(#a)" style="fill:#5a5a5a;fill-opacity:1;stroke-width:.308;stroke-dasharray:none"/><rect width="13.083" height="4.586" x="1.512" y="10.009" fill="none" ry="0" style="fill:#fff;fill-opacity:0;stroke:#5a5a5a;stroke-width:1.52938;stroke-linejoin:miter;stroke-miterlimit:5.5;stroke-dasharray:none;stroke-opacity:1"/></svg>
